lib/brands/logos/food-and-drug-administration.svg

<svg xmlns="http://www.w3.org/2000/svg" fill="none" aria-hidden="true" viewBox="0 0 169 81"><g id="Food and Drug Administration"><g id="Union"><path fill="black" d="M115.419 64.9849L159.958 64.9969L155.64 72.2337L155.58 72.4096L115.419 72.425V64.9849Z"/><path fill="black" d="M45.5846 34.2965L45.5529 64.7549V72.3495H70.1389L70.4367 72.3478C81.4502 72.2483 91.0306 65.9494 96.8017 57.4923L99.4045 53.0943L126.235 8.1503H117.584L101.938 33.7224C99.1247 18.8806 86.1117 7.99154 70.4367 7.84995L4.22767 7.85424L4.2251 72.4207H11.6807L11.6824 15.2755L70.1389 15.2773L70.3758 15.2712C83.9955 15.3991 94.9996 26.4435 94.9996 40.0444C94.9996 53.6693 83.9646 64.7248 70.3157 64.8201L70.1389 64.8149H53.2917L53.2934 64.7549V34.2965H45.5846Z"/><path fill="black" d="M14.4388 18.2181L70.2573 18.2113L70.3758 18.1589C82.4242 18.2713 92.1548 28.0406 92.1548 40.0744C92.1548 52.1255 82.3933 61.9049 70.3148 61.9873L70.1226 61.9788L56.4668 61.965V34.2982H64.1756V54.4399L64.8192 54.4227H70.1372L70.4333 54.4193C78.2347 54.2614 84.5095 47.9111 84.5095 40.1002C84.5095 32.2472 78.1712 25.8703 70.314 25.7759H22.0798L21.8936 25.7802V34.1429L21.8996 34.293L42.4807 34.2999L42.5013 41.9829L14.5221 41.9778L14.4371 41.9727L14.4388 18.2181Z"/><path fill="black" d="M126.235 8.15116L159.958 64.9969L164.775 57.0186L134.889 8.15116H126.235Z"/><path fill="black" d="M91.6296 72.425L126.208 14.8138L154.73 62.0079H115.419V54.6467H140.939L126.208 30.0718L102.066 72.425H91.6296Z"/><path fill="black" d="M22.1081 52.7528H42.5347V45.0697H14.7306L14.4371 45.068V72.4216H21.8927V52.8669L22.1081 52.7528Z"/></g></g></svg>

<svg xmlns="http://www.w3.org/2000/svg" fill="none" aria-hidden="true" viewBox="0 0 169 81"><g fill="#000"><path d="m115.419 64.985 44.539.012-4.318 7.237-.06.176-40.161.015v-7.44ZM45.585 34.297l-.032 30.458v7.595h24.586l.298-.002c11.013-.1 20.594-6.399 26.365-14.856l2.602-4.398L126.236 8.15h-8.651l-15.646 25.572C99.125 18.881 86.112 7.992 70.437 7.85l-66.21.004-.002 64.567h7.456l.001-57.146 58.457.002.237-.006C83.996 15.4 95 26.443 95 40.044c0 13.625-11.035 24.68-24.684 24.776l-.177-.005H53.292l.001-.06V34.297h-7.708Z"/><path d="m14.439 18.218 55.818-.007.119-.052c12.048.112 21.779 9.882 21.779 21.915 0 12.052-9.762 21.83-21.84 21.913l-.192-.008-13.656-.014V34.298h7.709V54.44l.643-.017h5.318l.296-.004c7.802-.158 14.076-6.508 14.076-14.319 0-7.853-6.338-14.23-14.195-14.324H22.08l-.186.004v8.363l.006.15 20.58.007.021 7.683-27.979-.005-.085-.005.002-23.755ZM126.235 8.151l33.723 56.846 4.817-7.978L134.889 8.15h-8.654ZM91.63 72.425l34.578-57.611 28.522 47.194h-39.311v-7.361h25.52l-14.731-24.575-24.142 42.353H91.63Z"/><path d="M22.108 52.753h20.427V45.07H14.73l-.294-.002v27.354h7.456V52.867l.215-.114Z"/></g></svg>
